documentation/public/assets/images/checkbox-dos-and-donts-06.svg

<svg width="76" height="18" viewBox="0 0 76 18" fill="none" xmlns="http://www.w3.org/2000/svg">
<rect x="1.05322" y="2.5" width="15" height="15" rx="2.5" fill="white" stroke="#545454"/>
<path d="M30.8423 11.3926C30.8423 11.985 30.6942 12.4909 30.3979 12.9102C30.1063 13.3249 29.6961 13.6416 29.1675 13.8604C28.6388 14.0791 28.0168 14.1885 27.3013 14.1885C26.923 14.1885 26.5653 14.1702 26.228 14.1338C25.8908 14.0973 25.5809 14.0449 25.2983 13.9766C25.0158 13.9082 24.7674 13.8239 24.5532 13.7236V12.6094C24.895 12.7507 25.312 12.8828 25.8042 13.0059C26.2964 13.1243 26.8114 13.1836 27.3491 13.1836C27.8504 13.1836 28.2743 13.1175 28.6206 12.9854C28.967 12.8486 29.229 12.6549 29.4067 12.4043C29.589 12.1491 29.6802 11.8438 29.6802 11.4883C29.6802 11.1465 29.605 10.8617 29.4546 10.6338C29.3042 10.4014 29.0535 10.1917 28.7026 10.0049C28.3563 9.81348 27.8823 9.61068 27.2808 9.39648C26.8569 9.24609 26.4832 9.08203 26.1597 8.9043C25.8361 8.72201 25.5649 8.51693 25.3462 8.28906C25.1274 8.0612 24.9611 7.79688 24.8472 7.49609C24.7378 7.19531 24.6831 6.85124 24.6831 6.46387C24.6831 5.93066 24.8175 5.47493 25.0864 5.09668C25.3599 4.71387 25.7358 4.4222 26.2144 4.22168C26.6974 4.0166 27.2511 3.91406 27.8755 3.91406C28.4087 3.91406 28.9009 3.96419 29.3521 4.06445C29.8078 4.16471 30.2248 4.29915 30.603 4.46777L30.2407 5.46582C29.8807 5.31543 29.4979 5.1901 29.0923 5.08984C28.6912 4.98958 28.2765 4.93945 27.8481 4.93945C27.4198 4.93945 27.0575 5.00326 26.7612 5.13086C26.4696 5.25391 26.2463 5.42936 26.0913 5.65723C25.9364 5.88509 25.8589 6.15625 25.8589 6.4707C25.8589 6.82161 25.9318 7.11328 26.0776 7.3457C26.228 7.57812 26.465 7.78548 26.7886 7.96777C27.1167 8.14551 27.5496 8.33236 28.0874 8.52832C28.6753 8.74251 29.1743 8.97038 29.5845 9.21191C29.9946 9.44889 30.3068 9.74056 30.521 10.0869C30.7352 10.4287 30.8423 10.8639 30.8423 11.3926Z" fill="black"/>
<path d="M35.7163 14.1885C35.0418 14.1885 34.4471 14.0495 33.9321 13.7715C33.4172 13.4935 33.0161 13.0697 32.729 12.5C32.4419 11.9303 32.2983 11.2126 32.2983 10.3467C32.2983 9.43978 32.4487 8.69922 32.7495 8.125C33.0549 7.54622 33.4741 7.11784 34.0073 6.83984C34.5405 6.56185 35.1466 6.42285 35.8257 6.42285C36.1994 6.42285 36.5594 6.46159 36.9058 6.53906C37.2567 6.61198 37.5438 6.7054 37.7671 6.81934L37.4253 7.76953C37.1974 7.67839 36.9331 7.59635 36.6323 7.52344C36.3361 7.45052 36.0581 7.41406 35.7983 7.41406C35.2788 7.41406 34.8459 7.52572 34.4995 7.74902C34.1577 7.97233 33.9002 8.30046 33.7271 8.7334C33.5584 9.16634 33.4741 9.69954 33.4741 10.333C33.4741 10.9391 33.5562 11.4564 33.7202 11.8848C33.8888 12.3132 34.1372 12.6413 34.4653 12.8691C34.798 13.0924 35.2127 13.2041 35.7095 13.2041C36.106 13.2041 36.4637 13.1631 36.7827 13.0811C37.1017 12.9945 37.3911 12.8942 37.6509 12.7803V13.792C37.4002 13.9196 37.12 14.0176 36.8101 14.0859C36.5047 14.1543 36.1401 14.1885 35.7163 14.1885Z" fill="black"/>
<path d="M40.563 6.55957V14.0518H39.4282V6.55957H40.563ZM40.0093 3.75684C40.1961 3.75684 40.3556 3.81836 40.4878 3.94141C40.6245 4.0599 40.6929 4.24674 40.6929 4.50195C40.6929 4.7526 40.6245 4.93945 40.4878 5.0625C40.3556 5.18555 40.1961 5.24707 40.0093 5.24707C39.8133 5.24707 39.6493 5.18555 39.5171 5.0625C39.3895 4.93945 39.3257 4.7526 39.3257 4.50195C39.3257 4.24674 39.3895 4.0599 39.5171 3.94141C39.6493 3.81836 39.8133 3.75684 40.0093 3.75684Z" fill="black"/>
<path d="M45.854 6.42285C46.492 6.42285 47.0389 6.56413 47.4946 6.84668C47.9504 7.12923 48.299 7.52572 48.5405 8.03613C48.7821 8.54199 48.9028 9.13444 48.9028 9.81348V10.5176H43.728C43.7417 11.3971 43.9604 12.0671 44.3843 12.5273C44.8081 12.9876 45.4051 13.2178 46.1753 13.2178C46.6493 13.2178 47.0685 13.1745 47.4331 13.0879C47.7977 13.0013 48.1759 12.8737 48.5679 12.7051V13.7031C48.1896 13.8717 47.8136 13.9948 47.4399 14.0723C47.0708 14.1497 46.6333 14.1885 46.1274 14.1885C45.4074 14.1885 44.7785 14.0426 44.2407 13.751C43.7075 13.4548 43.2928 13.0218 42.9966 12.4521C42.7004 11.8825 42.5522 11.1852 42.5522 10.3604C42.5522 9.55371 42.6867 8.85645 42.9556 8.26855C43.229 7.67611 43.6118 7.22038 44.104 6.90137C44.6007 6.58236 45.1841 6.42285 45.854 6.42285ZM45.8403 7.35254C45.2342 7.35254 44.7511 7.55078 44.3911 7.94727C44.0311 8.34375 43.8169 8.89746 43.7485 9.6084H47.7134C47.7088 9.16178 47.6382 8.76986 47.5015 8.43262C47.3693 8.09082 47.1665 7.8265 46.8931 7.63965C46.6196 7.44824 46.2687 7.35254 45.8403 7.35254Z" fill="black"/>
<path d="M54.3784 6.42285C55.2671 6.42285 55.9393 6.6416 56.395 7.0791C56.8507 7.51204 57.0786 8.20931 57.0786 9.1709V14.0518H55.9575V9.24609C55.9575 8.62174 55.814 8.15462 55.5269 7.84473C55.2443 7.53483 54.8091 7.37988 54.2212 7.37988C53.3918 7.37988 52.8084 7.61458 52.4712 8.08398C52.134 8.55339 51.9653 9.2347 51.9653 10.1279V14.0518H50.8306V6.55957H51.7466L51.9175 7.63965H51.979C52.1385 7.37533 52.3413 7.1543 52.5874 6.97656C52.8335 6.79427 53.1092 6.65755 53.4146 6.56641C53.7199 6.4707 54.0412 6.42285 54.3784 6.42285Z" fill="black"/>
<path d="M62.4175 14.1885C61.743 14.1885 61.1483 14.0495 60.6333 13.7715C60.1183 13.4935 59.7173 13.0697 59.4302 12.5C59.1431 11.9303 58.9995 11.2126 58.9995 10.3467C58.9995 9.43978 59.1499 8.69922 59.4507 8.125C59.756 7.54622 60.1753 7.11784 60.7085 6.83984C61.2417 6.56185 61.8478 6.42285 62.5269 6.42285C62.9006 6.42285 63.2606 6.46159 63.6069 6.53906C63.9578 6.61198 64.245 6.7054 64.4683 6.81934L64.1265 7.76953C63.8986 7.67839 63.6343 7.59635 63.3335 7.52344C63.0373 7.45052 62.7593 7.41406 62.4995 7.41406C61.98 7.41406 61.547 7.52572 61.2007 7.74902C60.8589 7.97233 60.6014 8.30046 60.4282 8.7334C60.2596 9.16634 60.1753 9.69954 60.1753 10.333C60.1753 10.9391 60.2573 11.4564 60.4214 11.8848C60.59 12.3132 60.8384 12.6413 61.1665 12.8691C61.4992 13.0924 61.9139 13.2041 62.4106 13.2041C62.8071 13.2041 63.1649 13.1631 63.4839 13.0811C63.8029 12.9945 64.0923 12.8942 64.3521 12.7803V13.792C64.1014 13.9196 63.8211 14.0176 63.5112 14.0859C63.2059 14.1543 62.8413 14.1885 62.4175 14.1885Z" fill="black"/>
<path d="M69.0142 6.42285C69.6522 6.42285 70.1991 6.56413 70.6548 6.84668C71.1105 7.12923 71.4591 7.52572 71.7007 8.03613C71.9422 8.54199 72.063 9.13444 72.063 9.81348V10.5176H66.8882C66.9019 11.3971 67.1206 12.0671 67.5444 12.5273C67.9683 12.9876 68.5653 13.2178 69.3354 13.2178C69.8094 13.2178 70.2287 13.1745 70.5933 13.0879C70.9578 13.0013 71.3361 12.8737 71.728 12.7051V13.7031C71.3498 13.8717 70.9738 13.9948 70.6001 14.0723C70.231 14.1497 69.7935 14.1885 69.2876 14.1885C68.5675 14.1885 67.9386 14.0426 67.4009 13.751C66.8677 13.4548 66.453 13.0218 66.1567 12.4521C65.8605 11.8825 65.7124 11.1852 65.7124 10.3604C65.7124 9.55371 65.8468 8.85645 66.1157 8.26855C66.3892 7.67611 66.772 7.22038 67.2642 6.90137C67.7609 6.58236 68.3442 6.42285 69.0142 6.42285ZM69.0005 7.35254C68.3944 7.35254 67.9113 7.55078 67.5513 7.94727C67.1912 8.34375 66.9771 8.89746 66.9087 9.6084H70.8735C70.869 9.16178 70.7983 8.76986 70.6616 8.43262C70.5295 8.09082 70.3267 7.8265 70.0532 7.63965C69.7798 7.44824 69.4289 7.35254 69.0005 7.35254Z" fill="black"/>
<path d="M73.8198 13.3408C73.8198 13.0218 73.8973 12.7962 74.0522 12.6641C74.2072 12.5273 74.3963 12.459 74.6196 12.459C74.8521 12.459 75.048 12.5273 75.2075 12.6641C75.367 12.7962 75.4468 13.0218 75.4468 13.3408C75.4468 13.6553 75.367 13.8854 75.2075 14.0312C75.048 14.1725 74.8521 14.2432 74.6196 14.2432C74.3963 14.2432 74.2072 14.1725 74.0522 14.0312C73.8973 13.8854 73.8198 13.6553 73.8198 13.3408Z" fill="black"/>
</svg>

<svg width="76" height="18" fill="none" xmlns="http://www.w3.org/2000/svg"><rect x="1.05" y="2.5" width="15" height="15" rx="2.5" fill="#fff" stroke="#545454"/><path d="M30.84 11.4c0 .58-.15 1.1-.44 1.51-.3.41-.7.73-1.23.95-.53.22-1.15.33-1.87.33a10.02 10.02 0 0 1-2-.21 3.96 3.96 0 0 1-.75-.26v-1.11a7.15 7.15 0 0 0 2.8.57c.5 0 .92-.06 1.27-.2.35-.13.6-.33.79-.58.18-.25.27-.56.27-.91 0-.34-.07-.63-.23-.86-.15-.23-.4-.44-.75-.63a9.9 9.9 0 0 0-1.42-.6c-.42-.15-.8-.32-1.12-.5a3.5 3.5 0 0 1-.81-.61 2.3 2.3 0 0 1-.5-.8 3 3 0 0 1-.17-1.03 2.3 2.3 0 0 1 1.53-2.24c.49-.2 1.04-.3 1.67-.3a6.8 6.8 0 0 1 2.72.55l-.36 1a7.88 7.88 0 0 0-1.15-.38c-.4-.1-.81-.15-1.24-.15-.43 0-.8.06-1.09.2a1.4 1.4 0 0 0-.67.52c-.15.23-.23.5-.23.81 0 .35.07.64.22.88.15.23.39.44.7.62.34.18.77.36 1.3.56.6.21 1.1.44 1.5.68.41.24.73.53.94.88.22.34.32.77.32 1.3Zm4.88 2.79a3.7 3.7 0 0 1-1.79-.42 2.9 2.9 0 0 1-1.2-1.27 4.77 4.77 0 0 1-.43-2.15c0-.91.15-1.65.45-2.22.3-.58.72-1.01 1.26-1.29a3.87 3.87 0 0 1 1.82-.42 4.93 4.93 0 0 1 1.94.4l-.34.95a5.88 5.88 0 0 0-1.63-.36c-.52 0-.95.12-1.3.34-.34.22-.6.55-.77.98-.17.44-.26.97-.26 1.6 0 .6.09 1.13.25 1.55.17.43.42.76.75.99.33.22.74.33 1.24.33a4.32 4.32 0 0 0 1.94-.42v1.01c-.25.13-.53.23-.84.3-.3.06-.67.1-1.1.1Zm4.84-7.63v7.5h-1.13v-7.5h1.13Zm-.55-2.8c.19 0 .35.06.48.18s.2.3.2.56c0 .25-.07.44-.2.56a.68.68 0 0 1-.48.19.7.7 0 0 1-.5-.19c-.12-.12-.18-.3-.18-.56 0-.25.06-.44.19-.56a.7.7 0 0 1 .49-.18Zm5.84 2.66c.64 0 1.19.14 1.64.43.46.28.8.68 1.05 1.19.24.5.36 1.1.36 1.77v.7h-5.17c.01.89.23 1.56.65 2.02.43.46 1.03.69 1.8.69a5.47 5.47 0 0 0 2.39-.51v1a5.53 5.53 0 0 1-2.44.48 3.9 3.9 0 0 1-1.89-.44c-.53-.3-.95-.73-1.24-1.3a4.5 4.5 0 0 1-.45-2.09 5 5 0 0 1 .4-2.1c.28-.58.66-1.04 1.15-1.36.5-.32 1.08-.48 1.75-.48Zm-.01.93c-.6 0-1.09.2-1.45.6-.36.4-.57.95-.64 1.66h3.96c0-.45-.07-.84-.2-1.18a1.7 1.7 0 0 0-.62-.79 1.8 1.8 0 0 0-1.05-.29Zm8.54-.93c.89 0 1.56.22 2.02.66.45.43.68 1.13.68 2.1v4.87h-1.12v-4.8c0-.63-.15-1.1-.43-1.4-.29-.32-.72-.47-1.3-.47-.84 0-1.42.23-1.76.7-.34.47-.5 1.15-.5 2.05v3.92h-1.14V6.56h.92l.17 1.08h.06c.16-.26.36-.49.6-.66a3.2 3.2 0 0 1 1.8-.55Zm8.04 7.77a3.7 3.7 0 0 1-1.79-.42 2.9 2.9 0 0 1-1.2-1.27 4.77 4.77 0 0 1-.43-2.15c0-.91.15-1.65.45-2.22.3-.58.73-1.01 1.26-1.29a3.87 3.87 0 0 1 1.82-.42 4.93 4.93 0 0 1 1.94.4l-.34.95a5.88 5.88 0 0 0-1.63-.36c-.52 0-.95.12-1.3.34-.34.22-.6.55-.77.98-.17.44-.25.97-.25 1.6 0 .6.08 1.13.24 1.55.17.43.42.76.75.99.33.22.74.33 1.24.33a4.32 4.32 0 0 0 1.94-.42v1.01c-.25.13-.53.23-.84.3-.3.06-.67.1-1.1.1Zm6.59-7.77c.64 0 1.19.14 1.64.43.46.28.8.68 1.05 1.19.24.5.36 1.1.36 1.77v.7H66.9c.01.89.23 1.56.65 2.02.43.46 1.03.69 1.8.69a5.47 5.47 0 0 0 2.39-.51v1a5.53 5.53 0 0 1-2.44.48 3.9 3.9 0 0 1-1.89-.44c-.53-.3-.95-.73-1.24-1.3a4.5 4.5 0 0 1-.45-2.09 5 5 0 0 1 .4-2.1c.28-.58.66-1.04 1.15-1.36.5-.32 1.08-.48 1.75-.48Zm-.01.93c-.6 0-1.09.2-1.45.6-.36.4-.57.95-.64 1.66h3.96c0-.45-.07-.84-.2-1.18a1.7 1.7 0 0 0-.62-.79A1.8 1.8 0 0 0 69 7.35Zm4.82 5.99c0-.32.08-.54.23-.68.16-.13.35-.2.57-.2.23 0 .43.07.59.2.16.14.24.36.24.68 0 .32-.08.55-.24.7a.85.85 0 0 1-.59.2.81.81 0 0 1-.57-.2c-.15-.15-.23-.38-.23-.7Z" fill="#000"/></svg>
